X: 305685
T: COTILLION No. 11. METAMORA SETT tune 1
C:
%R: reel
B: Elias Howe "The Musician's Companion" Part 3 1844 p.98 #1
S: http://imslp.org/wiki/The_Musician's_Companion_(Howe,_Elias)
Z: 2015 John Chambers <jc:trillian.mit.edu>
M: 2/4
L: 1/16
K: A
% - - - - - - - - - - - - - - - - - - - - - - - - - - - - -
E2 |\
A2A2 c2c2 | e2ag fedc | BcdB GABG | ABcd efga |\
A2A2 c2c2 | e2ag fedc | BcdB GABG | A2c2A2 H|]
(3(efe) |\
d2 B4 (3(efe) | c2 A4 (3(efe) | ^defe =dcdB | cAce a2 (3(efe) |\
d2 B4 (3(efe) | c2 A4 (3(efe) | ^defe dBcd | e^def ec"^D.C."=dB |]
K: Am
E2 |\
A2A2c2c2 | e4 f2e2 | ^d2e2 =d2B2 | (3(cdc) (3BcB AE^F=G |\
A2A2 c2c2 | e4 f2e2 | ^d8 | e6 "^D.C."E2 |]
% - - - - - - - - - - Dance description - - - - - - - - - -
%%begintext align
%% All right and left,
%% balance,
%% chassa de chassa, &c.
%%endtext
% - - - - - - - - - - - - - - - - - - - - - - - - - - - - -
%%sep 1 1 300


